!!!OTL: KOMM FREUDE SEI GESEGNET
!!!ARE: Europa, Mitteleuropa, Deutschland
!!!SCT: F0326
!!!YEM: Copyright 1995, estate of Helmut Schaffrath.
**kern
*ICvox
*Ivox
*M4/4
*k[b-e-]
*B-:
{4b-
=1
4.ff
8dd
4ee-
4cc
=2
4.dd
8cc
4b-}
{4dd
=3
4cc
8dd
8b-
4a
4g
=4
2f
4r}
{4f
=5
4.cc
8ee-
4.dd
8ff
=6
4ff
4ee-
4cc}
{8dd
8b-
=7
4g
8ee-
8cc
4b-
4a
=8
8b-
8cc
8dd
8ee-
4ff}
{4f
=9
4g
8ee-
8cc
4b-
4a
=10
2b-
4r}
==
!!!AGN: Jugend - Lied, Belehrung, Freude
!!!ONB: ESAC (Essen Associative Code) Database: FINK
!!!AMT: simple quadruple
!!!AIN: vox
!!!EED: Helmut Schaffrath
!!!EEV: 1.0
*-
